svg/Pictogram/pictograms-aem-0116-crush_of_whole_body-excavator_or_turret-pinned.svg

<?xml version="1.0" encoding="ISO-8859-1" standalone="yes"?>
<svg height="305.909" width="305.909">
  <metadata>
    <rdf:RDF xmlns:cc="http://web.resource.org/cc/" xmlns:dc="http://purl.org/dc/elements/1.1/" xmlns:rdf="http://www.w3.org/1999/02/22-rdf-syntax-ns#">
      <cc:Work rdf:about="">
        <dc:title></dc:title>
        <dc:description></dc:description>
        <dc:subject>
          <rdf:Bag>
            <rdf:li></rdf:li>
          </rdf:Bag>
        </dc:subject>
        <dc:publisher>
          <cc:Agent rdf:about="http://www.unece.org/trans/danger/publi/ghs/pictograms.html">
            <dc:title>Source: UNECE GHS of Classification and Labeling of Chemicals, Source: AEM Pictorial Database, Source: AEM Pictorial Database, Source: AEM Pictorial Database, Source: AEM Pictorial Database</dc:title>
          </cc:Agent>
        </dc:publisher>
        <dc:creator>
          <cc:Agent>
            <dc:title></dc:title>
          </cc:Agent>
        </dc:creator>
        <dc:rights>
          <cc:Agent>
            <dc:title></dc:title>
          </cc:Agent>
        </dc:rights>
        <dc:date></dc:date>
        <dc:format>image/svg+xml</dc:format>
        <dc:type rdf:resource="http://purl.org/dc/dcmitype/StillImage"/>
        <cc:license rdf:resource="http://en.wikipedia.org/wiki/Public_domain"/>
        <dc:language>en</dc:language>
      </cc:Work>
    </rdf:RDF>
  </metadata>
  <defs><marker id="ArrowEnd" markerHeight="3" markerUnits="strokeWidth" markerWidth="4" orient="auto" refX="0" refY="5" viewBox="0 0 10 10"><path d="M 0 0 L 10 5 L 0 10 z"/></marker><marker id="ArrowStart" markerHeight="3" markerUnits="strokeWidth" markerWidth="4" orient="auto" refX="10" refY="5" viewBox="0 0 10 10"><path d="M 10 0 L 0 5 L 10 10 z"/></marker> </defs>
  <g id="g2958" transform="matrix(1.3532768,0,0,1.3532781,-53.207834,-52.192858)">
    <path d="M 135.327 176.163L 48.3626 176.163L 48.3626 240.265L 136.401 240.265L 136.401 176.163L 135.327 176.163zM 134.253 178.311C 134.253 180.35 134.253 236.078 134.253 238.117C 132.186 238.117 52.5774 238.117 50.511 238.117C 50.511 236.078 50.511 180.35 50.511 178.311C 52.5774 178.311 132.186 178.311 134.253 178.311" style="stroke:none; fill-rule:evenodd; fill:#000000"/>
    <path d="M 48.7845 244.929L 258.171 244.929L 258.171 242.093L 48.7845 242.093L 48.7845 244.929z" style="stroke:none; fill-rule:evenodd; fill:#000000"/>
    <path d="M 197.472 66.3864C 197.1 66.3864 196.753 66.5814 196.558 66.8974L 186.143 83.8434L 187.972 84.9684C 187.972 84.9684 197.483 69.4954 198.073 68.5344C 199.253 68.5344 259.745 68.5344 259.745 68.5344L 259.745 66.3864L 197.472 66.3864" style="stroke:none; fill-rule:evenodd; fill:#000000"/>
    <path d="M 185.421 139.308L 202.448 150.632L 199.6 154.909L 170.776 137.44L 199.667 119.538L 203.522 123.96L 186.081 134.382L 258.893 134.382L 258.893 139.308L 185.421 139.308" style="stroke:none; fill-rule:evenodd; fill:#000000"/>
    <path d="M 136.843 130.659C 137.569 130.659 138.276 130.569 138.948 130.393C 139.198 130.327 138.987 130.374 138.987 130.374L 138.729 114.073C 138.729 114.073 139.015 114.104 138.706 114.034C 138.104 113.901 137.479 113.827 136.843 113.827C 132.194 113.827 128.429 117.597 128.429 122.245C 128.429 126.893 132.194 130.659 136.843 130.659" style="stroke:none; fill-rule:evenodd; fill:#000000"/>
    <path d="M 160.104 185.999C 158.229 184.022 155.097 183.94 153.116 185.819C 151.136 187.702 151.054 190.831 152.94 192.811C 154.815 194.792 157.948 194.874 159.929 192.991C 161.909 191.112 161.991 187.979 160.104 185.999" style="stroke:none; fill-rule:evenodd; fill:#000000"/>
    <path d="M 180.534 207.507C 178.651 205.527 175.518 205.449 173.542 207.328C 171.558 209.21 171.479 212.339 173.362 214.324C 175.241 216.3 178.374 216.386 180.35 214.495C 182.331 212.62 182.417 209.492 180.534 207.507" style="stroke:none; fill-rule:evenodd; fill:#000000"/>
    <path d="M 180.659 207.66L 173.491 214.468L 152.929 192.819L 160.1 186.015L 180.659 207.66" style="stroke:none; fill-rule:evenodd; fill:#000000"/>
    <path d="M 139.464 171.429C 141.444 169.55 141.526 166.417 139.643 164.44C 137.761 162.46 134.632 162.378 132.651 164.261C 130.675 166.14 130.593 169.268 132.468 171.249C 134.354 173.233 137.483 173.311 139.464 171.429" style="stroke:none; fill-rule:evenodd; fill:#000000"/>
    <path d="M 160.104 185.999L 139.651 164.436L 132.468 171.249L 133.897 172.757L 139.729 172.827L 139.753 178.929L 152.929 192.819L 160.104 185.999" style="stroke:none; fill-rule:evenodd; fill:#000000"/>
    <path d="M 147.55 162.726C 147.452 162.694 147.362 162.643 147.261 162.62C 144.616 161.933 141.913 163.515 141.229 166.155C 140.538 168.796 142.128 171.499 144.761 172.194L 144.753 172.218L 173.479 179.686L 175.983 170.12L 147.55 162.726" style="stroke:none; fill-rule:evenodd; fill:#000000"/>
    <path d="M 169.819 173.616C 169.136 176.261 170.729 178.96 173.378 179.632C 176.026 180.319 178.718 178.726 179.397 176.077C 180.077 173.436 178.483 170.741 175.843 170.058C 173.19 169.378 170.499 170.972 169.819 173.616" style="stroke:none; fill-rule:evenodd; fill:#000000"/>
    <path d="M 198.561 181.018C 197.882 183.663 199.475 186.358 202.124 187.038C 204.765 187.722 207.46 186.124 208.14 183.479C 208.823 180.831 207.225 178.14 204.585 177.456C 201.94 176.78 199.241 178.37 198.561 181.018" style="stroke:none; fill-rule:evenodd; fill:#000000"/>
    <path d="M 173.37 179.655L 202.304 187.089L 204.772 177.503L 175.839 170.069L 173.37 179.655" style="stroke:none; fill-rule:evenodd; fill:#000000"/>
    <path d="M 168.565 83.4644C 160.507 83.4644 153.948 90.0224 153.948 98.0854L 153.948 150.268C 153.948 158.327 160.507 164.89 168.565 164.89L 259.643 164.89L 259.643 162.741L 168.565 162.741C 161.69 162.741 156.097 157.143 156.097 150.268L 156.097 98.0854C 156.097 91.2064 161.69 85.6124 168.565 85.6124L 259.643 85.6124L 259.643 83.4644L 168.565 83.4644" style="stroke:none; fill-rule:evenodd; fill:#000000"/>
    <path d="M 150.233 93.0424L 150.206 93.0424C 150.155 90.3154 147.905 88.1364 145.179 88.1834C 142.448 88.2294 140.268 90.4764 140.311 93.2064L 140.225 93.2104L 140.854 134.315L 150.913 132.483L 150.233 93.0424" style="stroke:none; fill-rule:evenodd; fill:#000000"/>
    <path d="M 150.909 151.8C 150.909 151.8 151.034 158.733 155.089 162.616C 158.675 166.05 163.784 166.925 163.784 166.925L 163.772 168.284L 148.948 168.284L 148.948 151.655L 150.909 151.8" style="stroke:none; fill-rule:evenodd; fill:#000000"/>
    <path d="M 133.007 132.46L 92.1868 116.85L 92.1438 116.96C 89.5931 115.983 86.7298 117.261 85.7532 119.808C 84.7766 122.362 86.054 125.222 88.6087 126.198L 130.163 142.1L 130.171 142.077C 130.175 142.077 130.175 142.077 130.175 142.077C 130.507 142.202 130.843 142.288 131.182 142.343L 131.182 132.46L 133.007 132.46" style="stroke:none; fill-rule:evenodd; fill:#000000"/>
    <path d="M 133.007 132.46L 131.179 132.46L 131.179 167.183L 150.925 167.183L 150.925 132.46L 133.007 132.46" style="stroke:none; fill-rule:evenodd; fill:#000000"/>
    <path d="M 29.6204 267.288L 2.62042 267.288" style="stroke:#000000; stroke-width:0.5; fill:none"/>
    <path d="M 38.6204 276.288L 38.6204 303.288" style="stroke:#000000; stroke-width:0.5; fill:none"/>
    <path d="M 29.6204 38.6204L 2.62042 38.6204" style="stroke:#000000; stroke-width:0.5; fill:none"/>
    <path d="M 38.6204 29.6204L 38.6204 2.62042" style="stroke:#000000; stroke-width:0.5; fill:none"/>
    <path d="M 276.288 38.6204L 303.288 38.6204" style="stroke:#000000; stroke-width:0.5; fill:none"/>
    <path d="M 267.288 29.6204L 267.288 2.62042" style="stroke:#000000; stroke-width:0.5; fill:none"/>
    <path d="M 276.288 267.288L 303.288 267.288" style="stroke:#000000; stroke-width:0.5; fill:none"/>
    <path d="M 267.288 276.288L 267.288 303.288" style="stroke:#000000; stroke-width:0.5; fill:none"/>
  </g>
</svg>

<svg viewBox="0 0 305.91 305.91"><g transform="matrix(1.35328 0 0 1.35328-53.21-52.19)" fill-rule="evenodd"><path d="m135.33 176.16h-86.964v64.1h88.04v-64.1h-1.074m-1.074 2.148c0 2.039 0 57.767 0 59.806-2.067 0-81.68 0-83.74 0 0-2.039 0-57.767 0-59.806 2.066 0 81.68 0 83.74 0"/><path d="m48.785 244.93h209.39v-2.836h-209.39v2.836"/><path d="m197.47 66.39c-.372 0-.719.195-.914.511l-10.415 16.946 1.829 1.125c0 0 9.511-15.473 10.1-16.434 1.18 0 61.672 0 61.672 0v-2.148h-62.27"/><path d="m185.42 139.31l17.03 11.324-2.848 4.277-28.824-17.469 28.891-17.902 3.855 4.422-17.441 10.422h72.812v4.926h-73.47"/><path d="m136.84 130.66c.726 0 1.433-.09 2.105-.266.25-.066.039-.019.039-.019l-.258-16.301c0 0 .286.031-.023-.039-.602-.133-1.227-.207-1.863-.207-4.649 0-8.414 3.77-8.414 8.418 0 4.648 3.765 8.414 8.414 8.414"/><path d="m160.1 186c-1.875-1.977-5.01-2.059-6.988-.18-1.98 1.883-2.062 5.01-.176 6.992 1.875 1.981 5.01 2.063 6.989.18 1.98-1.879 2.062-5.01.175-6.992"/><path d="m180.53 207.51c-1.883-1.98-5.02-2.058-6.992-.179-1.984 1.882-2.063 5.01-.18 6.996 1.879 1.976 5.01 2.062 6.988.171 1.981-1.875 2.067-5 .184-6.988"/><path d="m180.66 207.66l-7.168 6.808-20.562-21.649 7.171-6.804 20.559 21.645"/><path d="m139.46 171.43c1.98-1.879 2.062-5.01.179-6.989-1.882-1.98-5.01-2.062-6.992-.179-1.976 1.879-2.058 5.01-.183 6.988 1.886 1.984 5.02 2.062 6.996.18"/><path d="m160.1 186l-20.453-21.563-7.183 6.813 1.429 1.508 5.832.07.024 6.102 13.176 13.89 7.175-6.82"/><path d="m147.55 162.73c-.098-.032-.188-.083-.289-.106-2.645-.687-5.348.895-6.03 3.535-.691 2.641.899 5.344 3.532 6.04l-.008.024 28.726 7.468 2.504-9.566-28.433-7.394"/><path d="m169.82 173.62c-.683 2.645.91 5.344 3.559 6.02 2.648.687 5.34-.906 6.02-3.555.68-2.641-.914-5.336-3.554-6.02-2.653-.68-5.344.914-6.02 3.558"/><path d="m198.56 181.02c-.679 2.645.914 5.34 3.563 6.02 2.641.684 5.336-.914 6.02-3.559.683-2.648-.915-5.339-3.555-6.02-2.645-.676-5.344.914-6.02 3.562"/><path d="m173.37 179.66l28.934 7.434 2.468-9.586-28.933-7.434-2.469 9.586"/><path d="m168.56 83.46c-8.06 0-14.617 6.558-14.617 14.621v52.18c0 8.06 6.559 14.622 14.617 14.622h91.08v-2.149h-91.08c-6.875 0-12.468-5.598-12.468-12.473v-52.18c0-6.879 5.593-12.473 12.468-12.473h91.08v-2.148h-91.08"/><path d="m150.23 93.04h-.027c-.051-2.727-2.301-4.906-5.03-4.859-2.731.046-4.911 2.293-4.868 5.02l-.086.004.629 41.1 10.06-1.832-.68-39.441"/><path d="m150.91 151.8c0 0 .125 6.933 4.18 10.816 3.586 3.434 8.695 4.309 8.695 4.309l-.012 1.359h-14.824v-16.629l1.961.145"/><path d="m133.01 132.46l-40.82-15.61-.043.11c-2.551-.977-5.414.301-6.391 2.848-.977 2.554.301 5.414 2.855 6.39l41.554 15.902.008-.023c.004 0 .004 0 .004 0 .332.125.668.211 1.01.266v-9.883h1.825"/><path d="m133.01 132.46h-1.828v34.723h19.746v-34.723h-17.918"/></g></svg>
